src/components/Careers/Benefits/images/pto.svg

<svg xmlns="http://www.w3.org/2000/svg" width="49" height="60" fill="none" viewBox="0 0 49 60"><path fill="#F73C01" fill-opacity=".4" d="M48.2317 59.7747H0.598877C0.598877 59.7747 3.46401 39.3606 25.3106 39.3606C47.1573 39.3606 48.2317 59.7747 48.2317 59.7747Z"/><path stroke="#F73C01" stroke-opacity=".6" stroke-width="2.149" d="M47.0311 58.7002H1.91155C2.02705 58.2164 2.18931 57.6087 2.4116 56.9112C2.99935 55.0671 4.00077 52.6146 5.65263 50.169C8.92974 45.3172 14.7944 40.435 25.3106 40.435C35.8158 40.435 41.2113 45.3035 44.0374 50.112C45.467 52.5446 46.2506 54.9868 46.6756 56.8268C46.8463 57.5658 46.9583 58.204 47.0311 58.7002Z"/><path fill="#F75A01" fill-opacity=".4" d="M15.896 8.36597L20.1302 9.77408C20.1302 9.77408 29.5823 20.7644 30.1179 24.0784C30.9586 29.2806 30.9499 36.8098 30.9499 36.8098H21.5406C21.5406 36.8098 23.8435 29.2806 22.9525 24.0784C22.0341 18.7164 15.896 8.36597 15.896 8.36597Z"/><path stroke="#F73C01" stroke-opacity=".6" stroke-width="1.544" d="M22.5581 36.0376C22.5825 35.9452 22.608 35.8473 22.6345 35.744C22.8399 34.9437 23.1041 33.822 23.3403 32.5342C23.8085 29.9807 24.1829 26.6877 23.7136 23.948C23.2321 21.1366 21.4133 17.1109 19.7688 13.8627C18.9501 12.2455 18.16 10.7932 17.5692 9.73623L19.6827 10.4391C19.7492 10.5171 19.8384 10.6221 19.9476 10.7513C20.2055 11.0564 20.575 11.4965 21.0202 12.0351C21.9111 13.1128 23.1032 14.5826 24.3109 16.1541C25.5203 17.7277 26.7372 19.3926 27.6817 20.8627C28.1542 21.598 28.5517 22.2741 28.8447 22.8584C29.1444 23.4562 29.3078 23.9058 29.3556 24.2016C29.7684 26.7561 29.975 29.9019 30.0776 32.4263C30.1287 33.6848 30.1537 34.782 30.166 35.5642C30.1687 35.7382 30.1708 35.8965 30.1724 36.0376H22.5581Z"/><mask id="path-5-inside-1" fill="#fff"><path fill-rule="evenodd" d="M16.1243 6.19142C14.9487 5.96669 12.5628 5.53957 11.2581 5.50797C8.38048 5.43829 3.61535 8.47842 3.61535 8.47842L0.936814 12.4376L5.52427 11.0942C5.52427 11.0942 9.60225 9.1971 12.4646 7.69662C13.0837 7.37209 13.8552 7.09753 14.576 6.88145C13.5149 7.33521 12.3037 7.88754 11.5739 8.33196C9.11542 9.8291 6.75038 14.9628 6.75038 14.9628L6.63755 19.7416L9.77045 16.1313C9.77045 16.1313 12.1754 12.3307 13.7721 9.52087C14.122 8.90516 14.6313 8.24798 15.127 7.67104C15.329 7.55147 15.6617 7.35927 16.0692 7.14124C16.989 7.2143 18.7084 7.40105 19.9321 7.83336C22.9793 8.9099 27.2863 10.2054 27.2863 10.2054L32.0185 10.8803L28.8023 7.34399C28.8023 7.34399 23.652 5.01519 20.8138 5.49491C20.0475 5.62443 18.9219 5.94748 17.8976 6.27005C18.2883 6.11084 18.6809 5.97201 19.05 5.87483C22.1753 5.05199 26.4655 3.70199 26.4655 3.70199L30.7585 1.59959L26.1105 0.483277C26.1105 0.483277 20.542 1.45285 18.4645 3.44521C17.7983 4.08411 16.8664 5.2338 16.1243 6.19142Z" clip-rule="evenodd"/></mask><path fill="#F73C01" fill-opacity=".4" fill-rule="evenodd" d="M16.1243 6.19142C14.9487 5.96669 12.5628 5.53957 11.2581 5.50797C8.38048 5.43829 3.61535 8.47842 3.61535 8.47842L0.936814 12.4376L5.52427 11.0942C5.52427 11.0942 9.60225 9.1971 12.4646 7.69662C13.0837 7.37209 13.8552 7.09753 14.576 6.88145C13.5149 7.33521 12.3037 7.88754 11.5739 8.33196C9.11542 9.8291 6.75038 14.9628 6.75038 14.9628L6.63755 19.7416L9.77045 16.1313C9.77045 16.1313 12.1754 12.3307 13.7721 9.52087C14.122 8.90516 14.6313 8.24798 15.127 7.67104C15.329 7.55147 15.6617 7.35927 16.0692 7.14124C16.989 7.2143 18.7084 7.40105 19.9321 7.83336C22.9793 8.9099 27.2863 10.2054 27.2863 10.2054L32.0185 10.8803L28.8023 7.34399C28.8023 7.34399 23.652 5.01519 20.8138 5.49491C20.0475 5.62443 18.9219 5.94748 17.8976 6.27005C18.2883 6.11084 18.6809 5.97201 19.05 5.87483C22.1753 5.05199 26.4655 3.70199 26.4655 3.70199L30.7585 1.59959L26.1105 0.483277C26.1105 0.483277 20.542 1.45285 18.4645 3.44521C17.7983 4.08411 16.8664 5.2338 16.1243 6.19142Z" clip-rule="evenodd"/><path fill="#F73C01" fill-opacity=".6" d="M11.2581 5.50797L11.2319 6.58707L11.2319 6.58707L11.2581 5.50797ZM16.1243 6.19142L15.9217 7.25164L16.572 7.37595L16.9776 6.85256L16.1243 6.19142ZM3.61535 8.47842L3.03479 7.56843L2.84649 7.68857L2.72133 7.87357L3.61535 8.47842ZM0.936814 12.4376L0.0427856 11.8327L-1.63735 14.3161L1.24017 13.4735L0.936814 12.4376ZM5.52427 11.0942L5.82763 12.1301L5.90575 12.1072L5.97956 12.0729L5.52427 11.0942ZM12.4646 7.69662L11.9634 6.7406L11.9634 6.7406L12.4646 7.69662ZM14.576 6.88145L15.0004 7.87392L14.2661 5.8475L14.576 6.88145ZM11.5739 8.33196L12.1353 9.25388L12.1353 9.25388L11.5739 8.33196ZM6.75038 14.9628L5.77 14.5112L5.67654 14.7141L5.67127 14.9374L6.75038 14.9628ZM6.63755 19.7416L5.55844 19.7161L5.48766 22.7137L7.4528 20.4491L6.63755 19.7416ZM9.77045 16.1313L10.5857 16.8388L10.6391 16.7773L10.6826 16.7085L9.77045 16.1313ZM13.7721 9.52087L14.7106 10.0542L14.7106 10.0542L13.7721 9.52087ZM15.127 7.67104L14.5772 6.74213L14.4242 6.83271L14.3083 6.96762L15.127 7.67104ZM16.0692 7.14124L16.1546 6.06521L15.8391 6.04014L15.5599 6.18949L16.0692 7.14124ZM19.9321 7.83336L19.5725 8.85113L19.5725 8.85113L19.9321 7.83336ZM27.2863 10.2054L26.9754 11.2391L27.0533 11.2626L27.1339 11.274L27.2863 10.2054ZM32.0185 10.8803L31.8662 11.9489L34.8345 12.3721L32.8171 10.154L32.0185 10.8803ZM28.8023 7.34399L29.6008 6.61772L29.4505 6.45248L29.247 6.36045L28.8023 7.34399ZM20.8138 5.49491L20.9937 6.55922L20.9937 6.55922L20.8138 5.49491ZM17.8976 6.27005L17.4903 5.27043L18.2218 7.29961L17.8976 6.27005ZM19.05 5.87483L18.7752 4.83099L18.7752 4.83099L19.05 5.87483ZM26.4655 3.70199L26.7895 4.73164L26.8672 4.7072L26.9403 4.6714L26.4655 3.70199ZM30.7585 1.59959L31.2332 2.56899L33.926 1.25024L31.0106 0.550025L30.7585 1.59959ZM26.1105 0.483277L26.3626 -0.566288L26.1454 -0.61845L25.9254 -0.580135L26.1105 0.483277ZM18.4645 3.44521L19.2117 4.22426L19.2117 4.22426L18.4645 3.44521ZM11.2319 6.58707C12.4299 6.61608 14.7221 7.02234 15.9217 7.25164L16.327 5.13121C15.1752 4.91104 12.6957 4.46305 11.2842 4.42888L11.2319 6.58707ZM3.61535 8.47842C4.19592 9.3884 4.19581 9.38847 4.19572 9.38853C4.19572 9.38853 4.19564 9.38858 4.19563 9.38859C4.19561 9.3886 4.19565 9.38857 4.19577 9.3885C4.19601 9.38835 4.19653 9.38801 4.19734 9.3875C4.19895 9.38648 4.20169 9.38474 4.20553 9.38232C4.21321 9.37746 4.22531 9.36985 4.24161 9.35966C4.27422 9.33928 4.32364 9.30862 4.38825 9.26917C4.51753 9.19023 4.70728 9.0763 4.94464 8.93925C5.42035 8.66455 6.08221 8.29987 6.82819 7.9385C7.57669 7.57591 8.39368 7.22459 9.18192 6.96979C9.98335 6.71073 10.6878 6.57389 11.2319 6.58707L11.2842 4.42888C10.3896 4.40721 9.41926 4.62426 8.5179 4.91562C7.60336 5.21125 6.68952 5.60689 5.88703 5.99563C5.08204 6.38558 4.37277 6.77657 3.8651 7.06972C3.61076 7.21659 3.40576 7.33963 3.2632 7.42668C3.19189 7.47022 3.13613 7.5048 3.09753 7.52892C3.07823 7.54098 3.06322 7.55043 3.05269 7.55708C3.04743 7.5604 3.04329 7.56303 3.0403 7.56493C3.0388 7.56588 3.03759 7.56664 3.03667 7.56723C3.03621 7.56752 3.03583 7.56777 3.03551 7.56797C3.03536 7.56807 3.03517 7.56819 3.0351 7.56824C3.03493 7.56834 3.03479 7.56843 3.61535 8.47842ZM1.83084 13.0424L4.50938 9.08327L2.72133 7.87357L0.0427856 11.8327L1.83084 13.0424ZM5.22092 10.0583L0.633458 11.4017L1.24017 13.4735L5.82763 12.1301L5.22092 10.0583ZM11.9634 6.7406C10.5492 7.48197 8.82756 8.3249 7.45354 8.98516C6.7678 9.31468 6.17108 9.59753 5.74594 9.79794C5.5334 9.89813 5.36382 9.97767 5.24754 10.0321C5.1894 10.0593 5.14459 10.0802 5.1144 10.0943C5.0993 10.1014 5.08786 10.1067 5.08024 10.1102C5.07643 10.112 5.07357 10.1133 5.07169 10.1142C5.07075 10.1147 5.07005 10.115 5.0696 10.1152C5.06937 10.1153 5.06921 10.1154 5.0691 10.1154C5.06905 10.1154 5.06902 10.1155 5.069 10.1155C5.06898 10.1155 5.06898 10.1155 5.52427 11.0942C5.97956 12.0729 5.97959 12.0729 5.97964 12.0728C5.97968 12.0728 5.97974 12.0728 5.97981 12.0728C5.97996 12.0727 5.98017 12.0726 5.98044 12.0725C5.98098 12.0722 5.98176 12.0718 5.98279 12.0714C5.98485 12.0704 5.98789 12.069 5.99188 12.0671C5.99986 12.0634 6.01167 12.0579 6.02714 12.0507C6.05809 12.0363 6.10368 12.015 6.16264 11.9874C6.28055 11.9322 6.45193 11.8518 6.66642 11.7507C7.09535 11.5485 7.69702 11.2633 8.38857 10.931C9.76912 10.2676 11.5177 9.41174 12.9657 8.65263L11.9634 6.7406ZM14.2661 5.8475C13.5195 6.07131 12.6721 6.36912 11.9634 6.7406L12.9657 8.65263C13.4953 8.37506 14.191 8.12375 14.886 7.9154L14.2661 5.8475ZM12.1353 9.25388C12.7907 8.85478 13.935 8.32952 15.0004 7.87392L14.1516 5.88897C13.0948 6.34091 11.8166 6.9203 11.0124 7.41005L12.1353 9.25388ZM6.75038 14.9628C7.73076 15.4145 7.7307 15.4146 7.73066 15.4147C7.73066 15.4147 7.73062 15.4148 7.73061 15.4148C7.7306 15.4148 7.73063 15.4148 7.73068 15.4146C7.7308 15.4144 7.73106 15.4138 7.73146 15.413C7.73226 15.4112 7.73363 15.4083 7.73555 15.4042C7.73939 15.3959 7.74545 15.383 7.75366 15.3656C7.77007 15.3308 7.79507 15.2783 7.82809 15.2102C7.89417 15.0739 7.99221 14.8755 8.11778 14.6319C8.36946 14.1436 8.72909 13.4789 9.16128 12.7716C9.59492 12.0619 10.0923 11.3247 10.6176 10.6842C11.1518 10.033 11.6704 9.53699 12.1353 9.25388L11.0124 7.41005C10.2481 7.8755 9.54919 8.58268 8.94845 9.3151C8.33892 10.0582 7.78405 10.8851 7.31913 11.646C6.85275 12.4093 6.46746 13.1217 6.19887 13.6428C6.06431 13.9038 5.95837 14.1182 5.88551 14.2685C5.84906 14.3436 5.82085 14.4029 5.80142 14.444C5.7917 14.4646 5.78418 14.4807 5.77892 14.492C5.77629 14.4976 5.77423 14.5021 5.77274 14.5053C5.77199 14.5069 5.77139 14.5082 5.77093 14.5092C5.77071 14.5097 5.77051 14.5101 5.77036 14.5104C5.77028 14.5106 5.77019 14.5108 5.77015 14.5109C5.77007 14.511 5.77 14.5112 6.75038 14.9628ZM7.71666 19.7671L7.82949 14.9883L5.67127 14.9374L5.55844 19.7161L7.71666 19.7671ZM8.9552 15.4239L5.82229 19.0342L7.4528 20.4491L10.5857 16.8388L8.9552 15.4239ZM12.8337 8.98757C12.0447 10.3759 11.0522 12.0157 10.2532 13.3141C9.8545 13.962 9.50543 14.5226 9.25612 14.921C9.13149 15.1202 9.03184 15.2788 8.96344 15.3874C8.92924 15.4418 8.90286 15.4836 8.88507 15.5118C8.87618 15.5259 8.86944 15.5365 8.86495 15.5436C8.8627 15.5472 8.86102 15.5499 8.85991 15.5516C8.85935 15.5525 8.85894 15.5531 8.85868 15.5536C8.85854 15.5538 8.85845 15.5539 8.85839 15.554C8.85836 15.5541 8.85834 15.5541 8.85832 15.5541C8.85831 15.5541 8.85832 15.5541 9.77045 16.1313C10.6826 16.7085 10.6826 16.7085 10.6826 16.7084C10.6827 16.7084 10.6827 16.7083 10.6827 16.7083C10.6828 16.7081 10.6829 16.7079 10.6831 16.7077C10.6834 16.7072 10.6839 16.7064 10.6845 16.7055C10.6857 16.7036 10.6875 16.7007 10.6899 16.697C10.6946 16.6896 10.7015 16.6785 10.7106 16.6641C10.7289 16.6352 10.7557 16.5927 10.7904 16.5376C10.8597 16.4274 10.9604 16.2671 11.0862 16.0661C11.3377 15.6641 11.6897 15.0989 12.0918 14.4455C12.8945 13.141 13.9028 11.4757 14.7106 10.0542L12.8337 8.98757ZM14.3083 6.96762C13.7952 7.56479 13.234 8.28303 12.8337 8.98757L14.7106 10.0542C15.01 9.52728 15.4674 8.93118 15.9457 8.37446L14.3083 6.96762ZM15.6768 8.59995C15.8687 8.48636 16.1875 8.30212 16.5784 8.09298L15.5599 6.18949C15.1358 6.41643 14.7894 6.61657 14.5772 6.74213L15.6768 8.59995ZM20.2916 6.8156C18.9215 6.33153 17.0752 6.13834 16.1546 6.06521L15.9837 8.21726C16.9027 8.29027 18.4953 8.47057 19.5725 8.85113L20.2916 6.8156ZM27.2863 10.2054C27.5972 9.17179 27.5972 9.17179 27.5972 9.17178C27.5972 9.17177 27.5971 9.17176 27.5971 9.17175C27.597 9.17171 27.5968 9.17166 27.5966 9.17159C27.5961 9.17145 27.5954 9.17122 27.5944 9.17093C27.5924 9.17033 27.5894 9.16942 27.5853 9.1682C27.5773 9.16578 27.5652 9.16213 27.5492 9.15732C27.5174 9.14769 27.47 9.13337 27.4086 9.11474C27.2857 9.07747 27.1065 9.02295 26.8819 8.95412C26.4325 8.81646 25.8015 8.62168 25.0757 8.39342C23.6215 7.93605 21.7972 7.34751 20.2916 6.8156L19.5725 8.85113C21.1141 9.39576 22.9669 9.99325 24.428 10.4528C25.1599 10.683 25.7962 10.8794 26.2495 11.0183C26.4763 11.0877 26.6574 11.1428 26.782 11.1806C26.8443 11.1995 26.8924 11.2141 26.9251 11.224C26.9415 11.2289 26.9539 11.2326 26.9624 11.2352C26.9666 11.2365 26.9698 11.2374 26.972 11.2381C26.973 11.2384 26.9739 11.2387 26.9744 11.2388C26.9747 11.2389 26.9749 11.239 26.9751 11.239C26.9752 11.2391 26.9752 11.2391 26.9753 11.2391C26.9753 11.2391 26.9754 11.2391 27.2863 10.2054ZM32.1709 9.81165L27.4387 9.13684L27.1339 11.274L31.8662 11.9489L32.1709 9.81165ZM28.0037 8.07026L31.22 11.6065L32.8171 10.154L29.6008 6.61772L28.0037 8.07026ZM20.9937 6.55922C21.5304 6.46851 22.2472 6.50339 23.0774 6.6454C23.8939 6.78508 24.7527 7.01618 25.5453 7.26821C26.3352 7.51939 27.0423 7.78587 27.5524 7.98985C27.8069 8.09162 28.011 8.17729 28.1502 8.23697C28.2198 8.26679 28.273 8.29009 28.3082 8.3056C28.3258 8.31336 28.3389 8.31917 28.3472 8.32288C28.3513 8.32473 28.3543 8.32606 28.356 8.32684C28.3569 8.32723 28.3575 8.32748 28.3577 8.3276C28.3578 8.32766 28.3579 8.32768 28.3579 8.32767C28.3579 8.32766 28.3578 8.32763 28.3578 8.32762C28.3577 8.32758 28.3576 8.32753 28.8023 7.34399C29.247 6.36045 29.2468 6.36038 29.2467 6.3603C29.2466 6.36026 29.2464 6.36017 29.2462 6.3601C29.2459 6.35994 29.2455 6.35975 29.245 6.35953C29.244 6.35908 29.2427 6.35849 29.241 6.35777C29.2378 6.35631 29.2333 6.35431 29.2277 6.35177C29.2163 6.34669 29.2001 6.33948 29.1793 6.3303C29.1376 6.31194 29.0775 6.28567 29.0007 6.25275C28.8472 6.18694 28.6267 6.09443 28.354 5.98537C27.8097 5.76769 27.0519 5.48195 26.1995 5.21089C25.3497 4.94069 24.3887 4.67954 23.4414 4.51749C22.5077 4.35777 21.5163 4.28145 20.6339 4.43059L20.9937 6.55922ZM18.2218 7.29961C19.2472 6.9767 20.3089 6.67498 20.9937 6.55922L20.6339 4.43059C19.7862 4.57388 18.5965 4.91826 17.5733 5.24049L18.2218 7.29961ZM18.3049 7.26967C18.6678 7.12179 19.0144 7.0004 19.3248 6.91867L18.7752 4.83099C18.3474 4.94362 17.9088 5.0999 17.4903 5.27043L18.3049 7.26967ZM19.3248 6.91867C20.9059 6.50239 22.7741 5.95486 24.2408 5.51347C24.9755 5.29236 25.6121 5.09709 26.0651 4.95706C26.2917 4.88703 26.4724 4.83079 26.5967 4.792C26.6588 4.7726 26.7069 4.75757 26.7394 4.74736C26.7557 4.74225 26.7682 4.73835 26.7766 4.73571C26.7808 4.73439 26.784 4.73339 26.7861 4.7327C26.7872 4.73236 26.788 4.7321 26.7886 4.73192C26.7889 4.73184 26.7891 4.73177 26.7893 4.73172C26.7893 4.73169 26.7894 4.73167 26.7894 4.73166C26.7895 4.73165 26.7895 4.73164 26.4655 3.70199C26.1415 2.67235 26.1415 2.67235 26.1415 2.67236C26.1415 2.67237 26.1415 2.67238 26.1414 2.67239C26.1413 2.67243 26.1411 2.67248 26.1409 2.67256C26.1404 2.67271 26.1397 2.67294 26.1387 2.67325C26.1367 2.67387 26.1337 2.67482 26.1297 2.67608C26.1217 2.6786 26.1096 2.68238 26.0937 2.68736C26.062 2.69732 26.0148 2.7121 25.9535 2.73122C25.8309 2.76948 25.6521 2.82513 25.4276 2.89452C24.9785 3.03332 24.3472 3.22698 23.6187 3.44623C22.1589 3.88554 20.3193 4.42443 18.7752 4.83099L19.3248 6.91867ZM26.9403 4.6714L31.2332 2.56899L30.2837 0.630187L25.9908 2.73259L26.9403 4.6714ZM31.0106 0.550025L26.3626 -0.566288L25.8585 1.53284L30.5064 2.64915L31.0106 0.550025ZM26.1105 0.483277C25.9254 -0.580135 25.9252 -0.580106 25.925 -0.580073C25.9249 -0.580057 25.9247 -0.58002 25.9245 -0.579988C25.9242 -0.579924 25.9237 -0.579844 25.9232 -0.57975C25.9221 -0.579562 25.9207 -0.579314 25.919 -0.579006C25.9155 -0.57839 25.9106 -0.577535 25.9045 -0.576439C25.8923 -0.574248 25.8748 -0.571097 25.8524 -0.566984C25.8077 -0.558759 25.7432 -0.546679 25.6611 -0.530728C25.4972 -0.49884 25.2628 -0.451405 24.976 -0.388283C24.4035 -0.262289 23.6161 -0.0725533 22.7588 0.182516C21.9041 0.436788 20.9626 0.761072 20.088 1.15967C19.226 1.55252 18.3633 2.04674 17.7174 2.66616L19.2117 4.22426C19.6045 3.8475 20.2169 3.47339 20.9833 3.1241C21.7371 2.78055 22.5772 2.48887 23.3744 2.2517C24.1689 2.01533 24.9035 1.83815 25.44 1.72009C25.7077 1.66118 25.9246 1.61731 26.0733 1.58839C26.1476 1.57394 26.2048 1.56324 26.2426 1.55629C26.2615 1.55281 26.2756 1.55028 26.2845 1.54868C26.289 1.54788 26.2922 1.54731 26.294 1.54698C26.295 1.54682 26.2956 1.54671 26.2959 1.54666C26.296 1.54664 26.2961 1.54663 26.296 1.54663C26.296 1.54663 26.2959 1.54665 26.2959 1.54665C26.2958 1.54667 26.2957 1.54669 26.1105 0.483277ZM17.7174 2.66616C16.9857 3.36791 16.0084 4.57881 15.2711 5.53028L16.9776 6.85256C17.7244 5.8888 18.611 4.80031 19.2117 4.22426L17.7174 2.66616Z" mask="url(#path-5-inside-1)"/></svg>

<svg fill="none" viewBox="0 0 49 60"><path fill="#F73C01" fill-opacity=".4" d="M48.232 59.775H.599S3.464 39.36 25.31 39.36c21.846 0 22.92 20.414 22.92 20.414z"/><path stroke="#F73C01" stroke-opacity=".6" stroke-width="2.149" d="M47.031 58.7H1.911a25.16 25.16 0 01.5-1.789c.588-1.844 1.59-4.296 3.242-6.742 3.277-4.852 9.141-9.734 19.658-9.734 10.505 0 15.9 4.868 18.726 9.677 1.43 2.433 2.214 4.875 2.639 6.715.17.739.282 1.377.355 1.873z"/><path fill="#F75A01" fill-opacity=".4" d="M15.896 8.366l4.234 1.408s9.452 10.99 9.988 14.304c.84 5.203.832 12.732.832 12.732h-9.41s2.303-7.53 1.413-12.732c-.919-5.362-7.057-15.712-7.057-15.712z"/><path stroke="#F73C01" stroke-opacity=".6" stroke-width="1.544" d="M22.558 36.038l.076-.294c.206-.8.47-1.922.706-3.21.468-2.553.843-5.846.374-8.586-.482-2.811-2.3-6.837-3.945-10.085a115.702 115.702 0 00-2.2-4.127l2.114.703.265.312a151.58 151.58 0 014.363 5.403c1.21 1.574 2.426 3.239 3.37 4.709.473.735.87 1.411 1.164 1.995.3.598.463 1.048.51 1.344.413 2.554.62 5.7.723 8.224a127.787 127.787 0 01.094 3.612h-7.614z"/><mask id="a" fill="#fff"><path fill-rule="evenodd" d="M16.124 6.191c-1.175-.224-3.561-.651-4.866-.683-2.878-.07-7.643 2.97-7.643 2.97l-2.678 3.96 4.587-1.344s4.078-1.897 6.94-3.397c.62-.325 1.391-.6 2.112-.816-1.061.454-2.272 1.007-3.002 1.451-2.459 1.497-4.824 6.63-4.824 6.63l-.112 4.78 3.132-3.61s2.405-3.801 4.002-6.611c.35-.616.86-1.273 1.355-1.85.202-.12.535-.312.942-.53.92.073 2.64.26 3.863.692 3.047 1.077 7.354 2.372 7.354 2.372l4.733.675-3.217-3.536s-5.15-2.329-7.988-1.85c-.767.13-1.892.453-2.916.776a9.58 9.58 0 011.152-.395c3.125-.823 7.415-2.173 7.415-2.173L30.76 1.6 26.11.483s-5.568.97-7.645 2.962c-.667.64-1.599 1.789-2.34 2.746z" clip-rule="evenodd"/></mask><path fill="#F73C01" fill-opacity=".4" fill-rule="evenodd" d="M16.124 6.191c-1.175-.224-3.561-.651-4.866-.683-2.878-.07-7.643 2.97-7.643 2.97l-2.678 3.96 4.587-1.344s4.078-1.897 6.94-3.397c.62-.325 1.391-.6 2.112-.816-1.061.454-2.272 1.007-3.002 1.451-2.459 1.497-4.824 6.63-4.824 6.63l-.112 4.78 3.132-3.61s2.405-3.801 4.002-6.611c.35-.616.86-1.273 1.355-1.85.202-.12.535-.312.942-.53.92.073 2.64.26 3.863.692 3.047 1.077 7.354 2.372 7.354 2.372l4.733.675-3.217-3.536s-5.15-2.329-7.988-1.85c-.767.13-1.892.453-2.916.776a9.58 9.58 0 011.152-.395c3.125-.823 7.415-2.173 7.415-2.173L30.76 1.6 26.11.483s-5.568.97-7.645 2.962c-.667.64-1.599 1.789-2.34 2.746z" clip-rule="evenodd"/><path fill="#F73C01" fill-opacity=".6" d="M11.258 5.508l-.026 1.08.026-1.08zm4.866.683l-.202 1.06.65.125.406-.523-.854-.662zM3.615 8.478l-.58-.91-.189.12-.125.186.894.604zm-2.678 3.96l-.894-.605-1.68 2.483 2.877-.843-.303-1.035zm4.587-1.344l.304 1.036.078-.023.074-.034-.456-.979zm6.94-3.397l-.5-.956.5.956zm2.112-.816l.424.993-.734-2.026.31 1.033zm-3.002 1.451l.561.922-.561-.922zm-4.824 6.63l-.98-.45-.093.202-.006.223 1.08.026zm-.112 4.78l-1.08-.026-.07 2.998 1.965-2.265-.815-.707zm3.132-3.61l.816.707.053-.062.044-.069-.913-.577zm4.002-6.611l.939.533-.939-.533zm1.355-1.85l-.55-.929-.153.09-.116.136.819.703zm.942-.53l.086-1.076-.316-.025-.28.15.51.951zm3.863.692l-.36 1.018.36-1.018zm7.354 2.372l-.31 1.034.077.024.08.011.153-1.069zm4.733.675l-.153 1.069 2.968.423-2.017-2.218-.798.726zm-3.217-3.536l.799-.726-.15-.166-.204-.092-.445.984zm-7.988-1.85l.18 1.065-.18-1.064zm-2.916.776l-.408-1 .732 2.03-.324-1.03zm1.152-.395l-.275-1.044.275 1.044zm7.415-2.173l.325 1.03.077-.025.073-.036-.475-.969zM30.76 1.6l.474.969 2.693-1.319-2.915-.7-.252 1.05zM26.11.483l.253-1.05-.218-.051-.22.038.185 1.063zm-7.645 2.962l.747.78-.747-.78zm-7.233 3.142c1.198.03 3.49.435 4.69.665l.405-2.12c-1.152-.221-3.631-.669-5.043-.703l-.052 2.158zM3.615 8.478l.58.91h.002l.009-.006a8.257 8.257 0 01.182-.113 29.883 29.883 0 012.44-1.33 18.832 18.832 0 012.354-.97c.801-.258 1.506-.395 2.05-.382l.052-2.158c-.894-.022-1.865.195-2.766.487-.915.295-1.828.69-2.631 1.08A32.04 32.04 0 003.04 7.565l-.003.002-.001.001.58.91zm-1.784 4.564l2.678-3.959-1.788-1.21-2.678 3.96 1.788 1.21zm3.39-2.984L.633 11.402l.607 2.072 4.588-1.344-.607-2.072zm6.742-3.317a154.605 154.605 0 01-4.51 2.244 256.95 256.95 0 01-2.205 1.047l-.134.062a4.289 4.289 0 01-.034.016l-.008.004-.002.001h-.001l.455.98.456.978.003-.002.009-.004.035-.016a69.902 69.902 0 00.64-.3c.428-.202 1.03-.488 1.722-.82 1.38-.663 3.129-1.52 4.577-2.278L11.963 6.74zm2.303-.893c-.746.223-1.594.521-2.303.893l1.003 1.912c.53-.278 1.225-.53 1.92-.738l-.62-2.067zm-2.13 3.406c.655-.4 1.799-.924 2.864-1.38l-.848-1.985c-1.057.452-2.335 1.031-3.14 1.521l1.123 1.844zM6.75 14.963l.98.452.001-.002.005-.009a6.447 6.447 0 01.092-.194 29.872 29.872 0 011.333-2.439 18.81 18.81 0 011.457-2.087c.534-.651 1.052-1.147 1.517-1.43L11.012 7.41c-.764.465-1.463 1.173-2.064 1.905-.61.743-1.164 1.57-1.629 2.331a32.045 32.045 0 00-1.54 2.846l-.006.013a.58.58 0 00-.002.004v.001c0 .001-.001.001.98.453zm.967 4.804l.112-4.779-2.158-.05-.113 4.778 2.159.051zm1.238-4.343l-3.133 3.61 1.63 1.415 3.134-3.61-1.63-1.415zm3.879-6.436a154.77 154.77 0 01-2.58 4.326 255.191 255.191 0 01-1.29 2.073l-.079.125-.02.032-.005.008-.001.002.911.577.913.577s0-.002.002-.002l.005-.009.02-.033a67.357 67.357 0 00.376-.598c.252-.402.604-.967 1.006-1.62a156.85 156.85 0 002.619-4.392l-1.877-1.066zm1.474-2.02c-.513.597-1.074 1.315-1.474 2.02l1.877 1.066c.299-.527.756-1.123 1.235-1.68l-1.638-1.406zM15.677 8.6c.192-.114.51-.298.901-.507L15.56 6.189c-.424.227-.77.428-.983.553l1.1 1.858zm4.615-1.784c-1.37-.484-3.217-.678-4.137-.75l-.171 2.151c.919.073 2.511.254 3.589.634l.719-2.035zm6.994 3.39l.311-1.034-.003-.001-.009-.003a22.83 22.83 0 00-.036-.01l-.14-.043-.527-.16c-.45-.139-1.08-.333-1.806-.562a154.664 154.664 0 01-4.784-1.577l-.72 2.035c1.542.545 3.395 1.142 4.856 1.602a260.654 260.654 0 002.354.728l.143.043.037.011.01.003h.002l.001.001.311-1.034zm4.885-.394l-4.732-.675-.305 2.137 4.732.675.305-2.137zM28.004 8.07l3.216 3.537 1.597-1.453-3.216-3.536-1.597 1.452zm-7.01-1.51c.536-.091 1.253-.057 2.083.085.817.14 1.676.371 2.468.623a29.895 29.895 0 012.802 1.055l.009.004h.002l.444-.983.445-.984h-.002l-.004-.002-.013-.006a14.339 14.339 0 00-.227-.1A32.043 32.043 0 0026.2 5.21c-.85-.27-1.811-.53-2.759-.693-.933-.16-1.925-.236-2.807-.086l.36 2.128zm-2.772.74c1.025-.323 2.087-.625 2.772-.74l-.36-2.13c-.848.144-2.038.488-3.06.81l.648 2.06zm.083-.03a8.4 8.4 0 011.02-.351l-.55-2.088c-.428.113-.866.269-1.285.44l.815 1.999zm1.02-.351c1.58-.417 3.45-.964 4.916-1.406a258.535 258.535 0 002.498-.766l.038-.011.01-.003.002-.001-.324-1.03-.323-1.03h-.001l-.002.001-.01.003-.035.011a73.463 73.463 0 01-.666.208c-.45.138-1.08.332-1.81.551-1.46.44-3.299.978-4.843 1.385l.55 2.088zM26.94 4.67l4.293-2.102-.95-1.939-4.292 2.103.95 1.938zM31.01.55L26.364-.566l-.505 2.099 4.648 1.116.505-2.099zm-4.9-.067a279.747 279.747 0 00-.185-1.063h-.002l-.004.001-.015.003a13.103 13.103 0 00-.243.045 32.04 32.04 0 00-2.902.713c-.855.255-1.796.58-2.671.978-.862.393-1.725.887-2.37 1.506l1.494 1.558c.393-.377 1.005-.75 1.771-1.1a18.83 18.83 0 012.391-.872 29.883 29.883 0 012.869-.696l.042-.007.009-.002h.002L26.11.483zm-8.393 2.183c-.731.702-1.709 1.913-2.446 2.864l1.707 1.323c.746-.964 1.633-2.053 2.234-2.629l-1.495-1.558z" mask="url(#a)"/></svg>
